img/video-img.svg

<svg width="73" height="23" viewBox="0 0 73 23" fill="none" xmlns="http://www.w3.org/2000/svg">
<rect width="73" height="23" rx="4" fill="white"/>
<path fill-rule="evenodd" clip-rule="evenodd" d="M18.7117 10.44C19.4099 10.9737 19.4099 12.0251 18.7117 12.5587L15.6584 14.8924C14.781 15.5629 13.5154 14.9373 13.5154 13.833V9.16575C13.5154 8.06144 14.781 7.43581 15.6584 8.1064L18.7117 10.44ZM17.902 11.4994L14.8487 9.16575L14.8487 13.833L17.902 11.4994Z" fill="#424551"/>
<path fill-rule="evenodd" clip-rule="evenodd" d="M15.9998 5.49935C12.6861 5.49935 9.99984 8.18564 9.99984 11.4993C9.99984 14.8131 12.6861 17.4993 15.9998 17.4993C19.3135 17.4993 21.9998 14.8131 21.9998 11.4993C21.9998 8.18564 19.3135 5.49935 15.9998 5.49935ZM8.6665 11.4993C8.6665 7.44926 11.9497 4.16602 15.9998 4.16602C20.0499 4.16602 23.3332 7.44926 23.3332 11.4993C23.3332 15.5494 20.0499 18.8327 15.9998 18.8327C11.9497 18.8327 8.6665 15.5494 8.6665 11.4993Z" fill="#424551"/>
<path d="M37.436 6.969L33.348 17H32.13L28.042 6.969H29.127C29.2483 6.969 29.3463 6.99933 29.421 7.06C29.4957 7.12067 29.5517 7.19767 29.589 7.291L32.417 14.368C32.4777 14.5267 32.536 14.6993 32.592 14.886C32.6527 15.0727 32.7063 15.2687 32.753 15.474C32.7997 15.2687 32.8487 15.0727 32.9 14.886C32.9513 14.6993 33.0073 14.5267 33.068 14.368L35.889 7.291C35.917 7.21167 35.9707 7.13933 36.05 7.074C36.134 7.004 36.2343 6.969 36.351 6.969H37.436ZM39.7776 9.909V17H38.5316V9.909H39.7776ZM40.0436 7.683C40.0436 7.80433 40.0179 7.91867 39.9666 8.026C39.9199 8.12867 39.8546 8.222 39.7706 8.306C39.6913 8.38533 39.5956 8.44833 39.4836 8.495C39.3763 8.54167 39.2619 8.565 39.1406 8.565C39.0193 8.565 38.9049 8.54167 38.7976 8.495C38.6949 8.44833 38.6039 8.38533 38.5246 8.306C38.4453 8.222 38.3823 8.12867 38.3356 8.026C38.2889 7.91867 38.2656 7.80433 38.2656 7.683C38.2656 7.56167 38.2889 7.44733 38.3356 7.34C38.3823 7.228 38.4453 7.13233 38.5246 7.053C38.6039 6.969 38.6949 6.90367 38.7976 6.857C38.9049 6.81033 39.0193 6.787 39.1406 6.787C39.2619 6.787 39.3763 6.81033 39.4836 6.857C39.5956 6.90367 39.6913 6.969 39.7706 7.053C39.8546 7.13233 39.9199 7.228 39.9666 7.34C40.0179 7.44733 40.0436 7.56167 40.0436 7.683ZM46.4449 11.596C46.2116 11.2833 45.9596 11.0663 45.6889 10.945C45.4182 10.819 45.1149 10.756 44.7789 10.756C44.1209 10.756 43.6146 10.9917 43.2599 11.463C42.9052 11.9343 42.7279 12.6063 42.7279 13.479C42.7279 13.941 42.7676 14.3377 42.8469 14.669C42.9262 14.9957 43.0429 15.2663 43.1969 15.481C43.3509 15.691 43.5399 15.845 43.7639 15.943C43.9879 16.041 44.2422 16.09 44.5269 16.09C44.9376 16.09 45.2946 15.9967 45.5979 15.81C45.9059 15.6233 46.1882 15.3597 46.4449 15.019V11.596ZM47.6909 6.689V17H46.9489C46.7716 17 46.6596 16.9137 46.6129 16.741L46.5009 15.88C46.1976 16.244 45.8522 16.538 45.4649 16.762C45.0776 16.986 44.6296 17.098 44.1209 17.098C43.7149 17.098 43.3462 17.021 43.0149 16.867C42.6836 16.7083 42.4012 16.4773 42.1679 16.174C41.9346 15.8707 41.7549 15.4927 41.6289 15.04C41.5029 14.5873 41.4399 14.067 41.4399 13.479C41.4399 12.9563 41.5099 12.471 41.6499 12.023C41.7899 11.5703 41.9906 11.1783 42.2519 10.847C42.5132 10.5157 42.8329 10.2567 43.2109 10.07C43.5936 9.87867 44.0229 9.783 44.4989 9.783C44.9329 9.783 45.3039 9.85767 45.6119 10.007C45.9246 10.1517 46.2022 10.3547 46.4449 10.616V6.689H47.6909ZM54.4049 12.681C54.4049 12.3917 54.3629 12.128 54.2789 11.89C54.1995 11.6473 54.0805 11.4397 53.9219 11.267C53.7679 11.0897 53.5789 10.9543 53.3549 10.861C53.1309 10.763 52.8765 10.714 52.5919 10.714C51.9945 10.714 51.5209 10.889 51.1709 11.239C50.8255 11.5843 50.6109 12.065 50.5269 12.681H54.4049ZM55.4129 16.006C55.2589 16.1927 55.0745 16.356 54.8599 16.496C54.6452 16.6313 54.4142 16.7433 54.1669 16.832C53.9242 16.9207 53.6722 16.986 53.4109 17.028C53.1495 17.0747 52.8905 17.098 52.6339 17.098C52.1439 17.098 51.6912 17.0163 51.2759 16.853C50.8652 16.685 50.5082 16.4423 50.2049 16.125C49.9062 15.803 49.6729 15.4063 49.5049 14.935C49.3369 14.4637 49.2529 13.9223 49.2529 13.311C49.2529 12.8163 49.3275 12.3543 49.4769 11.925C49.6309 11.4957 49.8502 11.1247 50.1349 10.812C50.4195 10.4947 50.7672 10.2473 51.1779 10.07C51.5885 9.888 52.0505 9.797 52.5639 9.797C52.9885 9.797 53.3805 9.86933 53.7399 10.014C54.1039 10.154 54.4165 10.3593 54.6779 10.63C54.9439 10.896 55.1515 11.2273 55.3009 11.624C55.4502 12.016 55.5249 12.464 55.5249 12.968C55.5249 13.164 55.5039 13.2947 55.4619 13.36C55.4199 13.4253 55.3405 13.458 55.2239 13.458H50.4849C50.4989 13.906 50.5595 14.2957 50.6669 14.627C50.7789 14.9583 50.9329 15.236 51.1289 15.46C51.3249 15.6793 51.5582 15.845 51.8289 15.957C52.0995 16.0643 52.4029 16.118 52.7389 16.118C53.0515 16.118 53.3199 16.083 53.5439 16.013C53.7725 15.9383 53.9685 15.859 54.1319 15.775C54.2952 15.691 54.4305 15.614 54.5379 15.544C54.6499 15.4693 54.7455 15.432 54.8249 15.432C54.9275 15.432 55.0069 15.4717 55.0629 15.551L55.4129 16.006ZM60.0444 9.797C60.5624 9.797 61.029 9.88333 61.4444 10.056C61.8597 10.2287 62.2144 10.4737 62.5084 10.791C62.8024 11.1083 63.0264 11.4933 63.1804 11.946C63.339 12.394 63.4184 12.8957 63.4184 13.451C63.4184 14.011 63.339 14.515 63.1804 14.963C63.0264 15.411 62.8024 15.7937 62.5084 16.111C62.2144 16.4283 61.8597 16.6733 61.4444 16.846C61.029 17.014 60.5624 17.098 60.0444 17.098C59.5217 17.098 59.0504 17.014 58.6304 16.846C58.215 16.6733 57.8604 16.4283 57.5664 16.111C57.2724 15.7937 57.046 15.411 56.8874 14.963C56.7334 14.515 56.6564 14.011 56.6564 13.451C56.6564 12.8957 56.7334 12.394 56.8874 11.946C57.046 11.4933 57.2724 11.1083 57.5664 10.791C57.8604 10.4737 58.215 10.2287 58.6304 10.056C59.0504 9.88333 59.5217 9.797 60.0444 9.797ZM60.0444 16.125C60.7444 16.125 61.267 15.8917 61.6124 15.425C61.9577 14.9537 62.1304 14.298 62.1304 13.458C62.1304 12.6133 61.9577 11.9553 61.6124 11.484C61.267 11.0127 60.7444 10.777 60.0444 10.777C59.6897 10.777 59.3794 10.8377 59.1134 10.959C58.852 11.0803 58.6327 11.2553 58.4554 11.484C58.2827 11.7127 58.152 11.995 58.0634 12.331C57.9794 12.6623 57.9374 13.038 57.9374 13.458C57.9374 14.298 58.11 14.9537 58.4554 15.425C58.8054 15.8917 59.335 16.125 60.0444 16.125Z" fill="#424551"/>
</svg>

<svg width="73" height="23" fill="none" xmlns="http://www.w3.org/2000/svg"><rect width="73" height="23" rx="4" fill="#fff"/><path fill-rule="evenodd" clip-rule="evenodd" d="M18.712 10.44a1.333 1.333 0 010 2.119l-3.054 2.333c-.877.67-2.143.045-2.143-1.059V9.166c0-1.105 1.266-1.73 2.143-1.06l3.054 2.334zm-.81 1.06l-3.053-2.334v4.667l3.053-2.334z" fill="#424551"/><path fill-rule="evenodd" clip-rule="evenodd" d="M16 5.5a6 6 0 100 12 6 6 0 000-12zm-7.334 6a7.333 7.333 0 1114.667 0 7.333 7.333 0 01-14.666 0z" fill="#424551"/><path d="M37.436 6.969L33.348 17H32.13L28.042 6.969h1.085c.121 0 .22.03.294.091a.56.56 0 01.168.231l2.828 7.077c.06.159.119.331.175.518.06.187.114.383.161.588.047-.205.096-.401.147-.588a5.62 5.62 0 01.168-.518l2.821-7.077a.5.5 0 01.161-.217.455.455 0 01.301-.105h1.085zm2.342 2.94V17h-1.246V9.909h1.246zm.266-2.226a.785.785 0 01-.077.343.951.951 0 01-.196.28.878.878 0 01-.287.189.85.85 0 01-.343.07.85.85 0 01-.616-.259 1.022 1.022 0 01-.19-.28.85.85 0 01-.07-.343.85.85 0 01.07-.343.88.88 0 01.19-.287.848.848 0 01.273-.196.85.85 0 01.343-.07.85.85 0 01.343.07.826.826 0 01.287.196c.084.08.149.175.196.287a.785.785 0 01.077.343zm6.4 3.913c-.232-.313-.484-.53-.755-.651a2.13 2.13 0 00-.91-.189c-.658 0-1.164.236-1.52.707-.354.471-.531 1.143-.531 2.016 0 .462.04.859.119 1.19.08.327.196.597.35.812.154.21.343.364.567.462.224.098.478.147.763.147.41 0 .768-.093 1.07-.28a3.05 3.05 0 00.848-.791v-3.423zm1.247-4.907V17h-.742c-.177 0-.29-.086-.336-.259l-.112-.861a3.86 3.86 0 01-1.036.882c-.387.224-.835.336-1.344.336-.406 0-.775-.077-1.106-.231a2.327 2.327 0 01-.847-.693c-.233-.303-.413-.681-.54-1.134a5.838 5.838 0 01-.188-1.561c0-.523.07-1.008.21-1.456.14-.453.34-.845.602-1.176.261-.331.58-.59.959-.777a2.84 2.84 0 011.288-.287c.434 0 .805.075 1.113.224.313.145.59.348.833.609V6.689h1.246zm6.714 5.992c0-.29-.042-.553-.126-.791a1.679 1.679 0 00-.357-.623 1.507 1.507 0 00-.567-.406 1.886 1.886 0 00-.763-.147c-.597 0-1.071.175-1.421.525-.346.345-.56.826-.644 1.442h3.878zm1.008 3.325a2.42 2.42 0 01-.553.49 3.531 3.531 0 01-.693.336 4.086 4.086 0 01-.756.196 4.41 4.41 0 01-.777.07 3.68 3.68 0 01-1.358-.245 3.075 3.075 0 01-1.071-.728 3.405 3.405 0 01-.7-1.19c-.168-.471-.252-1.013-.252-1.624 0-.495.075-.957.224-1.386.154-.43.373-.8.658-1.113a2.952 2.952 0 011.043-.742c.41-.182.873-.273 1.386-.273.425 0 .816.072 1.176.217.364.14.676.345.938.616.266.266.474.597.623.994.15.392.224.84.224 1.344 0 .196-.021.327-.063.392-.042.065-.122.098-.238.098h-4.74c.015.448.075.838.183 1.169.112.331.266.609.462.833.196.22.43.385.7.497.27.107.574.161.91.161.313 0 .58-.035.805-.105a4.042 4.042 0 00.994-.469.548.548 0 01.287-.112c.102 0 .182.04.238.119l.35.455zm4.631-6.209c.518 0 .985.086 1.4.259.416.173.77.418 1.064.735.294.317.518.702.672 1.155.159.448.238.95.238 1.505a4.5 4.5 0 01-.238 1.512 3.19 3.19 0 01-.672 1.148 3.001 3.001 0 01-1.064.735 3.705 3.705 0 01-1.4.252 3.78 3.78 0 01-1.414-.252 3 3 0 01-1.064-.735c-.294-.317-.52-.7-.679-1.148a4.634 4.634 0 01-.23-1.512c0-.555.076-1.057.23-1.505a3.26 3.26 0 01.68-1.155 3 3 0 011.063-.735c.42-.173.892-.259 1.414-.259zm0 6.328c.7 0 1.223-.233 1.568-.7.346-.471.518-1.127.518-1.967 0-.845-.172-1.503-.518-1.974-.345-.471-.868-.707-1.568-.707-.354 0-.665.06-.93.182a1.755 1.755 0 00-.659.525 2.409 2.409 0 00-.392.847 4.598 4.598 0 00-.126 1.127c0 .84.173 1.496.518 1.967.35.467.88.7 1.59.7z" fill="#424551"/></svg>
